public/images/books.svg

<svg fill="none" height="26" viewBox="0 0 24 26" width="24" xmlns="http://www.w3.org/2000/svg"><path d="m7.51042 19.0016h5.96138v-12.0167h-5.96138zm-3.00417-17.9781h-3.05111c-.797978 0-1.45514.65716-1.45514 1.45515v3.00416h6.00833v-3.00416c0-.79799-.7041-1.45515-1.50208-1.45515zm3.00417 22.4843c0 .798.65716 1.4552 1.50208 1.4552h2.9572c.798 0 1.5021-.7041 1.4552-1.5021v-3.0042h-5.96142zm-7.51042 0c0 .798.657162 1.4552 1.45514 1.4552h3.00417c.79798 0 1.45514-.7041 1.45514-1.4552l.09388-3.0041h-6.00833zm0-4.5062h6.00833v-12.0167h-6.00833zm19.6679-12.53304-5.7736 1.54902 3.098 11.54722 5.8206-1.549zm4.2716 15.91274-.7511-2.9103-5.8206 1.549.798 2.9103c.1878.798 1.0327 1.2674 1.8307 1.0327l2.9103-.7511c.798-.2347 1.2674-1.0327 1.0327-1.8306zm-5.3982-20.27817c-.2347-.79799-1.0796-1.267388-1.8776-1.03269l-2.8633.75104c-.1878.04694-.2816.14082-.4225.18777-.1877-.56329-.751-1.032688-1.4082-1.032688h-2.9572c-.79798 0-1.50208.704098-1.50208 1.502088v3.00416l5.72668.04694.2817 1.03269 5.7736-1.54903z" fill="#a37a56"/></svg>

<svg width="24" height="26" viewBox="0 0 24 26" fill="none" xmlns="http://www.w3.org/2000/svg">
<path d="M7.51042 19.0016H13.4718V6.9849H7.51042V19.0016ZM4.50625 1.0235H1.45514C0.657162 1.0235 0 1.68066 0 2.47865V5.48281H6.00833V2.47865C6.00833 1.68066 5.30423 1.0235 4.50625 1.0235ZM7.51042 23.5078C7.51042 24.3058 8.16758 24.963 9.0125 24.963H11.9697C12.7677 24.963 13.4718 24.2589 13.4249 23.4609V20.4567H7.46348L7.51042 23.5078ZM0 23.5078C0 24.3058 0.657162 24.963 1.45514 24.963H4.45931C5.25729 24.963 5.91445 24.2589 5.91445 23.5078L6.00833 20.5037H0V23.5078ZM0 19.0016H6.00833V6.9849H0V19.0016ZM19.6679 6.46856L13.8943 8.01758L16.9923 19.5648L22.8129 18.0158L19.6679 6.46856ZM23.9395 22.3813L23.1884 19.471L17.3678 21.02L18.1658 23.9303C18.3536 24.7283 19.1985 25.1977 19.9965 24.963L22.9068 24.2119C23.7048 23.9772 24.1742 23.1792 23.9395 22.3813ZM18.5413 2.10313C18.3066 1.30514 17.4617 0.835742 16.6637 1.07044L13.8004 1.82148C13.6126 1.86842 13.5188 1.9623 13.3779 2.00925C13.1902 1.44596 12.6269 0.976562 11.9697 0.976562H9.0125C8.21452 0.976562 7.51042 1.68066 7.51042 2.47865V5.48281L13.2371 5.52975L13.5188 6.56244L19.2924 5.01341L18.5413 2.10313Z" fill="#A37A56"/>
</svg>
